X:167
T:Contradiction Reel, The
T:Miss Gunning's Fancy
R:reel
D:Matt Molloy: Heathery Breeze
Z:id:hn-reel-167
M:C|
K:A
c2cA BE~E2 | GABc dfed | c2cA GABc |1 defg afed :|2 defg ~a3z ||
|: aA~A2 aAcA | GBEB GBE2 |1 aA~A2 aAcA | GBEB cA~A2 :|2 agfe fedc | Begb ~a3z ||
|: aec'e aec'e | bed'e bed'e | c'ee'e c'ee'e | d'bc'a ea~a2 :|
|: ce~e2 cefe | d2cA Be~e2 |1 cefe cefe | fege ~a3z :|2 cBce ~f3a | (3gab eg ~a3z ||
P:variations
|: c2cA BGED | CEAc dfed | c2BA GABc |1 defg afed :|2 defg ~a3e ||
|: aece aecA | GBEB GBEB |1 aece aecA | GBed cA~A2 :|2 agfe fedc | defg ~a3e ||
|: aec'e aec'e | bed'e bed'e | c'ee'e c'ee'e |1 dcBA EA~A2 :|2 defg afed ||
|: c3e fece | d2cA BE~E2 |1 ce~e2 fece | fagb afed :|2 cBce fa~a2 | (3gab eg afed ||

